X:1
T:Title
L:1/8
M:2/2
K:G
V:1 treble nm="Grand Piano"
V:1
 z4 z2[Q:1/4=100] GG | F2 GE- E2 G2 | F2 GE- E2 G2 | G2 GF- F4- |[M:3/4] F4 z2 |[M:1/4] B,B, | %6
[M:4/4] F2 E^D- D2 D2 | ^D2 EF- F2 AG | F2 GE- E4- |[M:3/4] E4 z2 |[M:1/4] E2 | %11
[M:4/4] G2 BA- A2 E2 | G2 BA- A2 E2 | B2 BA- A2 F2 | A2 BG- G4- |[M:3/4] G4 z2 |[M:1/4] F2 | %17
[M:4/4] F2 E^D- D4 | ^D2 EF- F2 F2 | A2 GF- F2 A2 | F2 GE- E4- |[M:3/4] E4 z2 |[M:1/4] G2 | %23
[M:4/4] A2 GA- A G3- | G4 z2 G2 | B2 GB- B2- (3BcB | A4 z2 A2 | G2 FA- A3 G | F4 z2 c2 | %29
 B2 Ac BcdB- | B4 z2 G2 | A2 GA- A G3- | G4 z2 G2 | B2 GB- B2- (3BcB | A4 z2 A2 | G2 FA- A3 G | %36
 F3 E ^D3 B,- | B, B,2 G F4 | GFE^D E4- | E6 z2 |] %40

